packages/ffe-icons/icons/open/300/sm/water_ec.svg

<svg xmlns="http://www.w3.org/2000/svg" height="20" viewBox="0 -960 960 960" width="20"><path d="M442.001-390.154v117.153q0 10.886 9.23 13.558 9.231 2.673 14.763-5.838l115.333-183.996q4.825-8.261-.004-16.415-4.83-8.154-14.086-8.154h-49.238v-117.153q0-10.886-9.23-13.558-9.231-2.673-14.763 5.838L378.673-414.723q-4.825 8.261.004 16.415 4.83 8.154 14.086 8.154h49.238Zm37.928 274.153q-121.467 0-206.697-85.253-85.231-85.252-85.231-206.691 0-57.209 25.914-113.417 25.914-56.209 64.785-107.884 38.871-51.676 84.086-97.226 45.214-45.55 83.676-80.68 7.615-6.231 16.129-9.731 8.513-3.5 17.432-3.5 8.919 0 16.91 3.5 7.99 3.5 15.285 10.731 37.782 35.13 82.82 80.603 45.038 45.473 84.615 97.251Q719.23-576.52 745.614-520.2q26.385 56.32 26.385 112.255 0 121.439-85.301 206.691-85.302 85.253-206.769 85.253ZM480-168q100 0 170-70t70-169.867Q720-476 666-557q-54-81-186-212-132 131-186 212t-54 149.133Q240-308 310-238q70 70 170 70Zm0-308.923Z"/></svg>

<svg xmlns="http://www.w3.org/2000/svg" height="20" viewBox="0 -960 960 960" width="20"><path d="M442-390.15V-273q0 10.89 9.23 13.56t14.76-5.84l115.34-184q4.82-8.26-.01-16.41-4.83-8.16-14.08-8.16H518V-591q0-10.89-9.23-13.56t-14.76 5.84l-115.34 184q-4.82 8.26.01 16.41 4.83 8.16 14.08 8.16H442ZM479.93-116q-121.47 0-206.7-85.25Q188-286.51 188-407.94q0-57.21 25.92-113.42 25.91-56.21 64.78-107.89 38.87-51.67 84.09-97.22 45.21-45.55 83.67-80.68 7.62-6.23 16.13-9.73 8.51-3.5 17.43-3.5t16.91 3.5q7.99 3.5 15.29 10.73 37.78 35.13 82.82 80.6 45.04 45.47 84.61 97.25 39.58 51.78 65.96 108.1Q772-463.88 772-407.94q0 121.43-85.3 206.69Q601.4-116 479.93-116Zm.07-52q100 0 170-70t70-169.87Q720-476 666-557T480-769Q348-638 294-557t-54 149.13Q240-308 310-238t170 70Zm0-308.92Z"/></svg>
